www/assets/icons/phone_enabled.svg

<svg xmlns="http://www.w3.org/2000/svg" width="24" height="24" viewBox="0 0 24 24" fill='currentColor'><path d="m17.38 10.79-2.2-2.2c-.28-.28-.36-.67-.25-1.02.37-1.12.57-2.32.57-3.57 0-.55.45-1 1-1H20c.55 0 1 .45 1 1 0 9.39-7.61 17-17 17-.55 0-1-.45-1-1v-3.49c0-.55.45-1 1-1 1.24 0 2.45-.2 3.57-.57.35-.12.75-.03 1.02.24l2.2 2.2c2.83-1.45 5.15-3.76 6.59-6.59"/></svg>

<svg width="24" height="24" viewBox="0 0 24 24" xmlns="http://www.w3.org/2000/svg" fill='currentColor'><path d="M17.38 10.79L15.18 8.59C14.9 8.31 14.82 7.92 14.93 7.57C15.3 6.45 15.5 5.25 15.5 4C15.5 3.45 15.95 3 16.5 3H20C20.55 3 21 3.45 21 4C21 13.39 13.39 21 4 21C3.45 21 3 20.55 3 20V16.51C3 15.96 3.45 15.51 4 15.51C5.24 15.51 6.45 15.31 7.57 14.94C7.92 14.82 8.32 14.91 8.59 15.18L10.79 17.38C13.62 15.93 15.94 13.62 17.38 10.79Z"/></svg>
